X:1
T:Next Monday Morning
M:3/4
L:1/4
K:C
 G| E C C| E GA/2-G/2| F D B,| C2 G| E C E| GA/2-B/2 c| dc/2-B/2 A|\
 G2 G| c c d| c G E| F G A| G2C/2-D/2| E E E| G A G| F D B,| C2||
